icons/confluence/confluence-original-wordmark.svg

<?xml version="1.0" encoding="UTF-8"?>
<svg xmlns="http://www.w3.org/2000/svg" xmlns:xlink="http://www.w3.org/1999/xlink" width="128px" height="px" viewBox="0 0 128 128" version="1.1">
<defs>
<linearGradient id="linear0" gradientUnits="userSpaceOnUse" x1="26.7906" y1="28.4674" x2="11.7924" y2="19.8546" gradientTransform="matrix(3.622902,0,0,3.622902,5.976436,-3.222482)">
<stop offset="0" style="stop-color:rgb(0%,32.156863%,80%);stop-opacity:1;"/>
<stop offset="0.9182" style="stop-color:rgb(13.72549%,50.196078%,98.431373%);stop-opacity:1;"/>
<stop offset="1" style="stop-color:rgb(14.901961%,51.764706%,100%);stop-opacity:1;"/>
</linearGradient>
<linearGradient id="linear1" gradientUnits="userSpaceOnUse" x1="5.20945" y1="2.52323" x2="20.2079" y2="11.1361" gradientTransform="matrix(3.622902,0,0,3.622902,5.976436,-3.222482)">
<stop offset="0" style="stop-color:rgb(0%,32.156863%,80%);stop-opacity:1;"/>
<stop offset="0.9182" style="stop-color:rgb(13.72549%,50.196078%,98.431373%);stop-opacity:1;"/>
<stop offset="1" style="stop-color:rgb(14.901961%,51.764706%,100%);stop-opacity:1;"/>
</linearGradient>
</defs>
<g id="surface1">
<path style=" stroke:none;fill-rule:nonzero;fill:url(#linear0);" d="M 23.628906 74.875 C 22.710938 76.320312 21.660156 78.03125 20.871094 79.34375 C 20.085938 80.65625 20.476562 82.367188 21.792969 83.15625 L 39.78125 94.191406 C 41.09375 94.980469 42.800781 94.585938 43.589844 93.273438 C 44.246094 92.089844 45.164062 90.511719 46.214844 88.804688 C 53.304688 77.109375 60.527344 78.425781 73.398438 84.597656 L 91.257812 93.007812 C 92.699219 93.667969 94.277344 93.007812 94.933594 91.695312 L 103.46875 72.378906 C 104.125 71.066406 103.46875 69.359375 102.15625 68.699219 C 98.347656 66.992188 90.863281 63.445312 84.296875 60.160156 C 60.003906 48.464844 39.386719 49.253906 23.628906 74.875 Z M 23.628906 74.875 "/>
<path style=" stroke:none;fill-rule:nonzero;fill:url(#linear1);" d="M 104.257812 30.988281 C 105.175781 29.542969 106.226562 27.835938 107.015625 26.523438 C 107.800781 25.207031 107.40625 23.5 106.09375 22.710938 L 88.105469 11.671875 C 86.792969 10.886719 85.085938 11.28125 84.296875 12.59375 C 83.640625 13.777344 82.722656 15.351562 81.671875 17.0625 C 74.578125 28.753906 67.359375 27.441406 54.488281 21.265625 L 36.628906 12.855469 C 35.1875 12.199219 33.609375 12.855469 32.953125 14.171875 L 24.417969 33.484375 C 23.761719 34.800781 24.417969 36.507812 25.730469 37.164062 C 29.539062 38.875 37.023438 42.421875 43.589844 45.707031 C 67.882812 57.269531 88.5 56.613281 104.257812 30.988281 Z M 104.257812 30.988281 "/>
<path style=" stroke:none;fill-rule:nonzero;fill:rgb(14.509804%,21.960784%,34.509804%);fill-opacity:1;" d="M 14.953125 117.824219 C 13.875 118.542969 12.167969 118.839844 10.371094 118.839844 C 4.675781 118.839844 1.46875 115.433594 1.46875 109.960938 C 1.46875 104.699219 4.675781 101.023438 10.339844 101.023438 C 12.019531 101.023438 13.726562 101.351562 14.953125 102.21875 L 14.953125 104.519531 C 13.726562 103.742188 12.347656 103.324219 10.339844 103.324219 C 6.261719 103.324219 3.867188 106.015625 3.867188 109.992188 C 3.867188 113.96875 6.382812 116.597656 10.488281 116.597656 C 12.316406 116.597656 13.726562 116.179688 14.984375 115.554688 L 14.984375 117.824219 Z M 14.953125 117.824219 "/>
<path style=" stroke:none;fill-rule:nonzero;fill:rgb(14.509804%,21.960784%,34.509804%);fill-opacity:1;" d="M 16.601562 111.996094 C 16.601562 108.046875 18.910156 105.179688 22.867188 105.179688 C 26.792969 105.179688 29.101562 108.046875 29.101562 111.996094 C 29.101562 115.941406 26.792969 118.871094 22.867188 118.871094 C 18.941406 118.839844 16.601562 115.941406 16.601562 111.996094 Z M 18.820312 111.996094 C 18.820312 114.507812 20.050781 116.75 22.898438 116.75 C 25.683594 116.75 26.914062 114.476562 26.914062 111.996094 C 26.914062 109.511719 25.714844 107.269531 22.898438 107.269531 C 20.050781 107.269531 18.820312 109.484375 18.820312 111.996094 Z M 18.820312 111.996094 "/>
<path style=" stroke:none;fill-rule:nonzero;fill:rgb(14.509804%,21.960784%,34.509804%);fill-opacity:1;" d="M 42.949219 118.601562 L 40.671875 118.601562 L 40.671875 110.648438 C 40.671875 108.289062 39.710938 107.242188 37.554688 107.242188 C 35.453125 107.242188 33.988281 108.648438 33.988281 111.308594 L 33.988281 118.632812 L 31.707031 118.632812 L 31.707031 105.476562 L 33.988281 105.476562 L 33.988281 107.628906 C 34.824219 106.074219 36.382812 105.207031 38.152344 105.207031 C 41.179688 105.207031 42.917969 107.300781 42.917969 110.917969 L 42.917969 118.601562 Z M 42.949219 118.601562 "/>
<path style=" stroke:none;fill-rule:nonzero;fill:rgb(14.509804%,21.960784%,34.509804%);fill-opacity:1;" d="M 52.6875 105.449219 L 52.6875 107.539062 L 49.269531 107.539062 L 49.269531 118.601562 L 47.054688 118.601562 L 47.054688 107.539062 L 44.925781 107.539062 L 44.925781 105.449219 L 47.054688 105.449219 L 47.054688 104.011719 C 47.054688 101.5625 48.433594 99.917969 51.25 99.917969 C 51.9375 99.917969 52.386719 100.035156 52.777344 100.125 L 52.777344 102.21875 C 52.386719 102.128906 51.878906 102.097656 51.339844 102.097656 C 49.929688 102.097656 49.242188 102.90625 49.242188 104.101562 L 49.242188 105.449219 Z M 52.6875 105.449219 "/>
<path style=" stroke:none;fill-rule:nonzero;fill:rgb(14.509804%,21.960784%,34.509804%);fill-opacity:1;" d="M 58.652344 118.660156 C 56.496094 118.660156 55.117188 117.644531 55.117188 115.222656 L 55.117188 99.945312 L 57.394531 99.945312 L 57.394531 114.953125 C 57.394531 116.152344 58.171875 116.570312 59.164062 116.570312 C 59.402344 116.570312 59.550781 116.570312 59.820312 116.539062 L 59.820312 118.574219 C 59.613281 118.632812 59.222656 118.660156 58.652344 118.660156 Z M 58.652344 118.660156 "/>
<path style=" stroke:none;fill-rule:nonzero;fill:rgb(14.509804%,21.960784%,34.509804%);fill-opacity:1;" d="M 61.738281 105.449219 L 64.015625 105.449219 L 64.015625 113.398438 C 64.015625 115.761719 64.976562 116.808594 67.132812 116.808594 C 69.230469 116.808594 70.699219 115.402344 70.699219 112.742188 L 70.699219 105.449219 L 72.980469 105.449219 L 72.980469 118.601562 L 70.699219 118.601562 L 70.699219 116.449219 C 69.859375 118.003906 68.300781 118.871094 66.535156 118.871094 C 63.507812 118.871094 61.769531 116.777344 61.769531 113.160156 L 61.769531 105.449219 Z M 61.738281 105.449219 "/>
<path style=" stroke:none;fill-rule:nonzero;fill:rgb(14.509804%,21.960784%,34.509804%);fill-opacity:1;" d="M 82.6875 118.839844 C 77.742188 118.839844 75.585938 116 75.585938 111.964844 C 75.585938 107.988281 77.804688 105.148438 81.820312 105.148438 C 85.894531 105.148438 87.515625 107.960938 87.515625 111.964844 L 87.515625 112.980469 L 77.894531 112.980469 C 78.222656 115.222656 79.660156 116.660156 82.777344 116.660156 C 84.308594 116.660156 85.597656 116.359375 86.796875 115.941406 L 86.796875 118.035156 C 85.6875 118.632812 84.007812 118.839844 82.6875 118.839844 Z M 77.832031 111.066406 L 85.207031 111.066406 C 85.085938 108.617188 83.976562 107.242188 81.699219 107.242188 C 79.300781 107.242188 78.074219 108.765625 77.832031 111.066406 Z M 77.832031 111.066406 "/>
<path style=" stroke:none;fill-rule:nonzero;fill:rgb(14.509804%,21.960784%,34.509804%);fill-opacity:1;" d="M 101.390625 118.601562 L 99.113281 118.601562 L 99.113281 110.648438 C 99.113281 108.289062 98.152344 107.242188 95.996094 107.242188 C 93.898438 107.242188 92.429688 108.648438 92.429688 111.308594 L 92.429688 118.632812 L 90.152344 118.632812 L 90.152344 105.476562 L 92.429688 105.476562 L 92.429688 107.628906 C 93.269531 106.074219 94.828125 105.207031 96.59375 105.207031 C 99.621094 105.207031 101.359375 107.300781 101.359375 110.917969 L 101.359375 118.601562 Z M 101.390625 118.601562 "/>
<path style=" stroke:none;fill-rule:nonzero;fill:rgb(14.509804%,21.960784%,34.509804%);fill-opacity:1;" d="M 113.886719 118.242188 C 113.109375 118.660156 111.878906 118.839844 110.679688 118.839844 C 105.976562 118.839844 103.789062 116 103.789062 111.964844 C 103.789062 107.988281 105.976562 105.148438 110.679688 105.148438 C 111.878906 105.148438 112.777344 105.296875 113.828125 105.777344 L 113.828125 107.871094 C 112.988281 107.480469 112.089844 107.242188 110.859375 107.242188 C 107.445312 107.242188 106.035156 109.394531 106.035156 111.964844 C 106.035156 114.535156 107.476562 116.6875 110.921875 116.6875 C 112.269531 116.6875 113.109375 116.507812 113.917969 116.210938 L 113.917969 118.242188 Z M 113.886719 118.242188 "/>
<path style=" stroke:none;fill-rule:nonzero;fill:rgb(14.509804%,21.960784%,34.509804%);fill-opacity:1;" d="M 122.757812 118.839844 C 117.816406 118.839844 115.65625 116 115.65625 111.964844 C 115.65625 107.988281 117.875 105.148438 121.890625 105.148438 C 125.964844 105.148438 127.585938 107.960938 127.585938 111.964844 L 127.585938 112.980469 L 117.964844 112.980469 C 118.292969 115.222656 119.734375 116.660156 122.851562 116.660156 C 124.378906 116.660156 125.667969 116.359375 126.867188 115.941406 L 126.867188 118.035156 C 125.757812 118.632812 124.109375 118.839844 122.757812 118.839844 Z M 117.933594 111.066406 L 125.308594 111.066406 C 125.1875 108.617188 124.078125 107.242188 121.800781 107.242188 C 119.375 107.242188 118.175781 108.765625 117.933594 111.066406 Z M 117.933594 111.066406 "/>
</g>
</svg>

<svg xmlns="http://www.w3.org/2000/svg" viewBox="0 0 128 128"><defs><linearGradient id="confluence-original-wordmark-a" gradientUnits="userSpaceOnUse" x1="26.791" y1="28.467" x2="11.792" y2="19.855" gradientTransform="translate(5.976 -3.222) scale(3.6229)"><stop offset="0" stop-color="#0052cc"/><stop offset=".918" stop-color="#2380fb"/><stop offset="1" stop-color="#2684ff"/></linearGradient><linearGradient id="confluence-original-wordmark-b" gradientUnits="userSpaceOnUse" x1="5.209" y1="2.523" x2="20.208" y2="11.136" gradientTransform="translate(5.976 -3.222) scale(3.6229)"><stop offset="0" stop-color="#0052cc"/><stop offset=".918" stop-color="#2380fb"/><stop offset="1" stop-color="#2684ff"/></linearGradient></defs><path d="M23.629 74.875a229.944 229.944 0 00-2.758 4.469c-.785 1.312-.394 3.023.922 3.812l17.988 11.035c1.313.79 3.02.395 3.809-.918a118.23 118.23 0 012.625-4.468c7.09-11.696 14.312-10.38 27.183-4.207l17.86 8.41c1.441.66 3.02 0 3.676-1.313l8.535-19.316c.656-1.313 0-3.02-1.313-3.68-3.808-1.707-11.293-5.254-17.86-8.539-24.292-11.695-44.91-10.906-60.667 14.715zm0 0" fill="url(#confluence-original-wordmark-a)"/><path d="M104.258 30.988a230.06 230.06 0 002.758-4.465c.785-1.316.39-3.023-.922-3.812L88.105 11.67c-1.312-.784-3.02-.39-3.808.923a121.42 121.42 0 01-2.625 4.469c-7.094 11.69-14.313 10.378-27.184 4.203l-17.86-8.41c-1.44-.657-3.019 0-3.675 1.316l-8.535 19.312c-.656 1.317 0 3.024 1.312 3.68 3.81 1.711 11.293 5.258 17.86 8.543C67.883 57.27 88.5 56.613 104.258 30.988zm0 0" fill="url(#confluence-original-wordmark-b)"/><path d="M14.953 117.824c-1.078.719-2.785 1.016-4.582 1.016-5.695 0-8.902-3.406-8.902-8.88 0-5.26 3.207-8.937 8.87-8.937 1.68 0 3.388.329 4.614 1.196v2.3c-1.226-.777-2.605-1.195-4.613-1.195-4.078 0-6.473 2.692-6.473 6.668 0 3.977 2.516 6.606 6.621 6.606 1.828 0 3.239-.418 4.496-1.043v2.27zm0 0M16.602 111.996c0-3.95 2.308-6.816 6.265-6.816 3.926 0 6.235 2.867 6.235 6.816 0 3.945-2.309 6.875-6.235 6.875-3.926-.031-6.265-2.93-6.265-6.875zm2.218 0c0 2.512 1.23 4.754 4.078 4.754 2.786 0 4.016-2.273 4.016-4.754 0-2.484-1.2-4.726-4.016-4.726-2.847 0-4.078 2.214-4.078 4.726zm0 0M42.95 118.602h-2.278v-7.954c0-2.359-.961-3.406-3.117-3.406-2.102 0-3.567 1.406-3.567 4.067v7.324h-2.281v-13.156h2.281v2.152c.836-1.555 2.395-2.422 4.164-2.422 3.028 0 4.766 2.094 4.766 5.711v7.684zm0 0M52.688 105.45v2.09H49.27v11.062h-2.215v-11.063h-2.13v-2.09h2.13v-1.437c0-2.45 1.379-4.094 4.195-4.094.688 0 1.137.117 1.527.207v2.094c-.39-.09-.898-.121-1.437-.121-1.41 0-2.098.808-2.098 2.004v1.347zm0 0M58.652 118.66c-2.156 0-3.535-1.015-3.535-3.437V99.945h2.278v15.008c0 1.2.777 1.617 1.77 1.617.237 0 .386 0 .655-.03v2.034c-.207.059-.597.086-1.168.086zm0 0M61.738 105.45h2.278v7.948c0 2.364.96 3.41 3.117 3.41 2.097 0 3.566-1.406 3.566-4.066v-7.293h2.281v13.153H70.7v-2.153c-.84 1.555-2.4 2.422-4.165 2.422-3.027 0-4.765-2.094-4.765-5.71v-7.712zm0 0M82.688 118.84c-4.946 0-7.102-2.84-7.102-6.875 0-3.977 2.219-6.817 6.234-6.817 4.075 0 5.696 2.813 5.696 6.817v1.015h-9.621c.328 2.243 1.765 3.68 4.882 3.68 1.532 0 2.82-.3 4.02-.719v2.094c-1.11.598-2.79.805-4.11.805zm-4.856-7.774h7.375c-.121-2.449-1.23-3.824-3.508-3.824-2.398 0-3.625 1.524-3.867 3.824zm0 0M101.39 118.602h-2.277v-7.954c0-2.359-.96-3.406-3.117-3.406-2.098 0-3.566 1.406-3.566 4.067v7.324h-2.278v-13.156h2.278v2.152c.84-1.555 2.398-2.422 4.164-2.422 3.027 0 4.765 2.094 4.765 5.711v7.684zm0 0M113.887 118.242c-.778.418-2.008.598-3.207.598-4.703 0-6.89-2.84-6.89-6.875 0-3.977 2.187-6.817 6.89-6.817 1.199 0 2.097.149 3.148.63v2.093c-.84-.39-1.738-.629-2.969-.629-3.414 0-4.824 2.153-4.824 4.723s1.442 4.722 4.887 4.722c1.348 0 2.187-.18 2.996-.476v2.031zm0 0M122.758 118.84c-4.942 0-7.102-2.84-7.102-6.875 0-3.977 2.219-6.817 6.235-6.817 4.074 0 5.695 2.813 5.695 6.817v1.015h-9.621c.328 2.243 1.77 3.68 4.887 3.68 1.527 0 2.816-.3 4.015-.719v2.094c-1.11.598-2.758.805-4.11.805zm-4.824-7.774h7.375c-.121-2.449-1.23-3.824-3.508-3.824-2.426 0-3.625 1.524-3.867 3.824zm0 0" fill="#253858"/></svg>
